X:123
T:Reels simple chords 384
M:3/4
L:1/8
K:D
dc [d2D,2F,2A,2] D2 | F2 A2 [d2D,2F,2A,2] | D2 D2 dc | [d2D,2F,2A,2] D2 F2 | A2 [e2E,2^G,2B,2D2] E2 |
E2 dc [d2D,2F,2A,2] | D2 F2 A2 | [B2G,2B,2D2] g2 f2 | e2 [dE,G,B,]c BA |
B2 c2 [d2D,2F,2A,2] | D2 D2 dc | [d2D,2F,2A,2] D2 F2 | A2 [d2D,2F,2A,2] D2 |
D2 dc [d2D,2F,2A,2] | D2 F2 A2 | [e2E,2^G,2B,2D2] E2 E2 | dc [d2D,2F,2A,2] D2 |
F2 A2 [B2G,2B,2D2] | g2 f2 e2 | [dE,G,B,]c BA B2 | c2 [d2D,2F,2A,2] D2 |
D2 fg2< [a2D,2F,2A,2] |f2< g2e | [f2D,2F,2A,2] d2 d2 | fg2< [a2D,2F,2A,2]f |
g2 a2 [b2E,2G,2B,2] | e2 e2 fg | [a2D,2F,2A,2]>f2 g3 |e [f2B,2D2F2] d2 |
e2 c2 [dEG,B,]c | BA B2 c2 | [d2D,2F,2A,2] D2 D2 | fg2< [a2D,2F,2A,2]f |
g2>e2 [f2D,2F,2A,2] | d2 d2 fg | [a2D,2F,2A,2]>f2 g2 | a2 [b2E,2G,2B,2] e2 |
e2 fg2< [a2D,2F,2A,2] |f2< g2e | [f2B,2D2F2] d2 e2 | c2 [dEG,B,]c BA |
B2 c2 [d2D,2F,2A,2] | D2 D2 fg | [aD,F,A,]g fa gf | eg [f2D,2F,2A,2] d2 |
d2 fg [aD,F,A,]g | fa gf ga | [bE,G,B,]a gf e2 | fg [aD,F,A,]g fa |
gf eg [fB,DF]e | df e2 c2 | [dEG,B,]c BA Bc | de [f2D,2F,2A,2] d2 |
d2 |


